app/dist/common/images/powell-industries.svg

<svg height="18" viewBox="0 0 18 18" width="18" xmlns="http://www.w3.org/2000/svg"><path d="m0 0h18v18h-18z" fill="#f0f3fa"/><path d="m5.13 5.13 7.3-1.11c.24-.04.5-.02.72.07.22.08.42.22.57.4a1.21 1.21 0 0 1 .16 1.3l-4 8.46a1.28 1.28 0 0 1 -.5.55 1.49 1.49 0 0 1 -1.13.14 1.32 1.32 0 0 1 -.84-.72l-3.31-7.34a1.2 1.2 0 0 1 .24-1.34 1.45 1.45 0 0 1 .5-.33c.08-.04.18-.06.28-.08zm5.87 4.05v-2.68c0-.3-.2-.5-.6-.5h-2.68v.25l.28.15v5.2l-.28.15v.25h1.5v-.25l-.22-.16v-1.99h1.44c.3.03.6-.11.56-.42zm-1 .12h-1v-3h1z" fill="#0f5a3e"/></svg>

<!-- by TradingView --><svg width="18" height="18" viewBox="0 0 18 18" xmlns="http://www.w3.org/2000/svg"><path fill="#F0F3FA" d="M0 0h18v18H0z"/><path d="m5.13 5.13 7.3-1.11c.24-.04.5-.02.72.07.22.08.42.22.57.4a1.21 1.21 0 0 1 .16 1.3l-4 8.46a1.28 1.28 0 0 1-.5.55 1.49 1.49 0 0 1-1.13.14 1.32 1.32 0 0 1-.84-.72L4.1 6.88a1.2 1.2 0 0 1 .24-1.34 1.45 1.45 0 0 1 .5-.33c.08-.04.18-.06.28-.08ZM11 9.18V6.5c0-.3-.2-.5-.6-.5H7.72v.25L8 6.4v5.2l-.28.15V12h1.5v-.25L9 11.59V9.6h1.44c.3.03.6-.11.56-.42Zm-1 .12H9v-3h1v3Z" fill="#0F5A3E"/></svg>
